storage/app/icons/phosphoricons/fill/calendar-slash-fill.svg

<svg xmlns="http://www.w3.org/2000/svg" fill="currentColor" viewBox="0 0 256 256"><path d="M224 48v139.57a4 4 0 0 1-7 2.7L116.8 80H208V48h-24v8a8 8 0 0 1-8.52 8 8.18 8.18 0 0 1-7.48-8.27V48H87.71l-8.46-9.31a4 4 0 0 1 3-6.69H168v-8a8 8 0 0 1 8.52-8 8.18 8.18 0 0 1 7.48 8.27V32h24a16 16 0 0 1 16 16m-10.08 162.62A8 8 0 0 1 208 224H48a16 16 0 0 1-16-16V48a16 16 0 0 1 16-16 8 8 0 0 1 5.93 2.62ZM73.55 80 48 51.89V80Z"/></svg>

<svg xmlns="http://www.w3.org/2000/svg" viewBox="0 0 256 256" fill="currentColor"><path d="M224,48V187.57a4,4,0,0,1-7,2.7L116.8,80H208V48H184v8a8,8,0,0,1-8.52,8A8.18,8.18,0,0,1,168,55.73V48H87.71l-8.46-9.31a4,4,0,0,1,3-6.69H168V24a8,8,0,0,1,8.52-8A8.18,8.18,0,0,1,184,24.27V32h24A16,16,0,0,1,224,48ZM213.92,210.62A8,8,0,0,1,208,224H48a16,16,0,0,1-16-16V48A16,16,0,0,1,48,32a8,8,0,0,1,5.93,2.62ZM73.55,80,48,51.89V80Z"/></svg>
